X:1
T:교가
T:대덕소프트웨어 마이스터고등학교 교가 
T:1317 장원호
T:김명순 작사 강창식 작곡 
T: 
T:대덕소프트웨어 마이스터고등학교
C:강창식
Z:김명순
Z:대덕소프트웨어 마이스터고등학교
L:1/8
M:4/4
K:Eb
V:1 treble nm="Piano" snm="Pno."
V:1
 G3 G G2 G2 | F3/2 G/ F2 E4 | C3 C E2 G2 | F6 z2 |[K:Eb] G3 G G4 | F3/2 G/ F2 E4 | C3 C G2 F2 | %7
w: 동 해 에 서|솟 은 태 양|계 룡 을 넘|어|세 상 을|안 고 도 는|우 리 의 이|
w: 금 강 물 은|구 비 구 비|한 밭 을 안|고|세 계 로|흘 러 가 는|우 리 들 의|
w: |||||||
 E6 z2 | (c3 c) c2 c2 | B3/2 c/ BA G4 | c3 c c c e2 | d6 z2 | e3 e e4 | d3/2 e/ d c B4 | (c4 =A4) | %15
w: 상||||||||
w: 꿈|찬 란 하 게|인 류 문- * 화|피 워 나 아 가|리|빛 나 라|창 조 의 전 당|대- *|
w: |사- * 랑 과|평 화 의- * 꽃|피 워 나 아 가|리||||
 B6 z2 | z B, C B, G2 G2 | z E F E B2 B2 | B3 c d2 B2 | e6 z2 |] %20
w: |||||
w: 덕|소 프 트 웨 어|마 이 스 터 고|무 궁 하 리|라|
w: |||||

